assets/icons/network/offline.svg

<?xml version="1.0" encoding="UTF-8" standalone="no"?>
<svg
   viewBox="0 0 24 24"
   height="24"
   width="24"
   version="1.1"
   id="svg10"
   sodipodi:docname="offline.svg"
   inkscape:version="1.2 (1:1.2.1+202207142221+cd75a1ee6d)"
   xmlns:inkscape="http://www.inkscape.org/namespaces/inkscape"
   xmlns:sodipodi="http://sodipodi.sourceforge.net/DTD/sodipodi-0.dtd"
   xmlns="http://www.w3.org/2000/svg"
   xmlns:svg="http://www.w3.org/2000/svg">
  <defs
     id="defs14" />
  <sodipodi:namedview
     id="namedview12"
     pagecolor="#ffffff"
     bordercolor="#666666"
     borderopacity="1.0"
     inkscape:pageshadow="2"
     inkscape:pageopacity="0.0"
     inkscape:pagecheckerboard="0"
     showgrid="true"
     inkscape:snap-page="true"
     inkscape:zoom="24.90625"
     inkscape:cx="18.348808"
     inkscape:cy="11.884567"
     inkscape:window-width="1920"
     inkscape:window-height="1043"
     inkscape:window-x="0"
     inkscape:window-y="0"
     inkscape:window-maximized="1"
     inkscape:current-layer="svg10"
     inkscape:showpageshadow="2"
     inkscape:deskcolor="#d1d1d1">
    <inkscape:grid
       type="xygrid"
       id="grid1024" />
    <inkscape:grid
       type="xygrid"
       id="grid895"
       dotted="true"
       spacingx="0.5"
       spacingy="0.5"
       empspacing="10" />
  </sodipodi:namedview>
  <path
     id="rect869"
     style="fill:#808080;fill-opacity:1;fill-rule:evenodd;stroke-width:0.5;stroke-linecap:round;stroke-linejoin:round"
     d="M 9 3 C 8.4546507 3 8 3.4546507 8 4 L 8 7 C 8 7.5453493 8.4546507 8 9 8 L 11 8 L 11 11 L 7.5 11 C 6.6944468 11 6.0379043 11.130065 5.5839844 11.583984 C 5.1300643 12.037905 5 12.694447 5 13.5 L 5 15 L 3 15 C 2.4546507 15 2 15.454652 2 16 L 2 19 C 2 19.545348 2.4546507 20 3 20 L 8 20 C 8.5453493 20 9 19.545348 9 19 L 9 16 C 9 15.454652 8.5453493 15 8 15 L 6 15 L 6 13.5 C 6 12.805558 6.1199376 12.462092 6.2910156 12.291016 C 6.4620939 12.119937 6.8055577 12 7.5 12 L 15.5 12 C 16.194442 12 16.537908 12.119937 16.708984 12.291016 C 16.880063 12.462092 17 12.805558 17 13.5 L 17 14 L 18 14 L 18 13.5 C 18 12.694447 17.869935 12.037905 17.416016 11.583984 C 16.962095 11.130065 16.305553 11 15.5 11 L 12 11 L 12 8 L 14 8 C 14.545348 8 15 7.5453493 15 7 L 15 4 C 15 3.4546507 14.545348 3 14 3 L 9 3 z M 9 4 L 14 4 L 14 7 L 9 7 L 9 4 z M 3 16 L 8 16 L 8 19 L 3 19 L 3 16 z " />
  <path
     id="path770"
     style="color:#000000;fill:#808080"
     d="m 14.853032,15.146 -0.707032,0.707032 2.646485,2.646484 -2.646485,2.646484 0.707032,0.707032 2.646484,-2.646485 2.646484,2.646485 0.707032,-0.707032 -2.646485,-2.646484 2.646485,-2.646484 -0.707032,-0.707032 -2.646484,2.646485 z" />
</svg>

<svg height="24" width="24" xmlns="http://www.w3.org/2000/svg"><path style="fill:gray;fill-opacity:1;stroke-width:.5;stroke-linecap:round;stroke-linejoin:round" d="M9 3c-.545 0-1 .455-1 1v3c0 .545.455 1 1 1h2v3H7.5c-.806 0-1.462.13-1.916.584C5.13 12.038 5 12.694 5 13.5V15H3c-.545 0-1 .455-1 1v3c0 .545.455 1 1 1h5c.545 0 1-.455 1-1v-3c0-.545-.455-1-1-1H6v-1.5c0-.694.12-1.038.291-1.209C6.462 12.12 6.806 12 7.5 12h8c.694 0 1.038.12 1.209.291.171.171.291.515.291 1.209v.5h1v-.5c0-.806-.13-1.462-.584-1.916-.454-.454-1.11-.584-1.916-.584H12V8h2c.545 0 1-.455 1-1V4c0-.545-.455-1-1-1H9zm0 1h5v3H9V4zM3 16h5v3H3v-3z"/><path style="color:#000;fill:gray" d="m14.853 15.146-.707.707 2.646 2.647-2.646 2.646.707.707 2.647-2.646 2.646 2.646.707-.707-2.646-2.646 2.646-2.647-.707-.707-2.646 2.646z"/></svg>
